src/pos-icons/align-vertical-center.svg

<svg height="24" viewBox="0 0 24 24" width="24" xmlns="http://www.w3.org/2000/svg"><path d="m5 20v-7h-3v-2h3v-7h6v7h2v-4h6v4h3v2h-3v4h-6v-4h-2v7z"/></svg>

<?xml version="1.0" encoding="UTF-8"?><!DOCTYPE svg PUBLIC "-//W3C//DTD SVG 1.1//EN" "http://www.w3.org/Graphics/SVG/1.1/DTD/svg11.dtd"><svg xmlns="http://www.w3.org/2000/svg" xmlns:xlink="http://www.w3.org/1999/xlink" version="1.1" id="mdi-align-vertical-center" width="24" height="24" viewBox="0 0 24 24"><path d="M5 20V13H2V11H5V4H11V11H13V7H19V11H22V13H19V17H13V13H11V20H5Z" /></svg>
